<?xml version="1.0" encoding="UTF-8"?>
<map version="1.10" tiledversion="1.12.2" orientation="orthogonal" renderorder="right-down" width="20" height="15" tilewidth="16" tileheight="16" infinite="0" nextlayerid="8" nextobjectid="1">
 <tileset firstgid="1" source="walls_floor.tsx"/>
 <tileset firstgid="100" source="Interior.tsx"/>
 <layer id="3" name="Chão" width="20" height="15">
  <data encoding="csv">
0,0,0,0,0,0,0,0,0,0,0,0,0,0,0,0,0,0,0,0,
0,0,0,0,0,0,0,0,0,0,0,0,0,0,0,0,0,0,0,0,
0,0,0,0,0,0,0,0,0,0,0,0,0,0,0,0,0,0,0,0,
0,0,0,0,0,0,0,0,0,0,0,0,0,0,0,0,0,0,0,0,
0,44,45,44,44,44,44,45,44,44,44,44,44,44,44,44,44,44,45,0,
0,44,44,53,44,53,53,44,44,44,44,44,44,45,53,44,53,44,45,0,
0,44,44,45,44,45,44,53,53,53,53,53,53,44,44,44,45,45,45,0,
0,44,53,54,53,44,53,53,54,54,54,53,54,53,53,44,45,45,54,0,
0,44,45,44,44,53,54,45,53,53,53,53,53,53,54,53,54,44,45,0,
0,44,44,53,53,54,53,54,53,54,45,53,54,45,45,53,53,44,45,0,
0,44,53,54,54,44,44,45,53,54,54,53,54,54,54,54,54,44,45,0,
0,44,45,53,54,53,44,44,44,44,44,44,44,44,44,53,54,44,45,0,
0,44,44,53,54,44,44,53,53,44,53,53,44,45,45,45,45,45,45,0,
0,53,53,53,54,53,53,53,54,53,53,54,53,54,54,54,54,54,54,0,
0,0,0,0,0,0,0,0,0,0,0,0,0,0,0,0,0,0,0,0
</data>
 </layer>
 <layer id="1" name="Parede cima e baixo" width="20" height="15">
  <data encoding="csv">
82,87,87,87,87,87,87,87,87,87,87,87,87,87,87,87,87,87,87,0,
0,20,20,20,20,20,20,20,20,20,20,20,20,20,20,20,20,20,20,0,
0,55,55,55,55,55,55,55,55,55,55,55,55,55,55,55,55,55,56,0,
0,66,64,64,64,64,64,64,64,64,64,64,64,64,64,64,64,64,66,0,
0,0,0,0,0,0,0,0,0,0,0,0,0,0,0,0,0,0,0,0,
0,0,0,0,0,0,0,0,0,0,0,0,0,0,0,0,0,0,0,0,
0,0,0,0,0,0,0,0,0,0,0,0,0,0,0,0,0,0,0,0,
0,0,0,0,0,0,0,0,0,0,0,0,0,0,0,0,0,0,0,0,
0,0,0,0,0,0,0,0,0,0,0,0,0,0,0,0,0,0,0,0,
0,0,0,0,0,0,0,0,0,0,0,0,0,0,0,0,0,0,0,0,
0,0,0,0,0,0,0,0,0,0,0,0,0,0,0,0,0,0,0,0,
0,0,0,0,0,0,0,0,0,0,0,0,0,0,0,0,0,0,0,0,
0,0,0,0,0,0,0,0,0,0,0,0,0,0,0,0,0,0,0,0,
0,80,80,80,80,80,80,80,80,80,80,80,80,80,80,79,79,79,80,0,
82,89,89,89,89,89,89,89,89,89,89,89,89,89,89,88,88,88,89,84
</data>
 </layer>
 <layer id="2" name="Paredes Laterais" width="20" height="15">
  <data encoding="csv">
0,0,0,0,0,0,0,0,0,0,0,0,0,0,0,0,0,0,0,84,
82,12,0,0,0,0,0,0,0,0,0,0,0,0,0,0,0,0,10,84,
82,12,0,0,0,0,0,0,0,0,0,0,0,0,0,0,0,0,10,84,
82,12,0,0,0,0,0,0,0,0,0,0,0,0,0,0,0,0,10,84,
82,12,0,0,0,0,0,0,0,0,0,0,0,0,0,0,0,0,10,84,
82,12,0,0,0,0,0,0,0,0,0,0,0,0,0,0,0,0,10,84,
82,12,0,0,0,0,0,0,0,0,0,0,0,0,0,0,0,0,10,84,
82,12,0,0,0,0,0,0,0,0,0,0,0,0,0,0,0,0,10,84,
82,12,0,0,0,0,0,0,0,0,0,0,0,0,0,0,0,0,10,84,
82,12,0,0,0,0,0,0,0,0,0,0,0,0,0,0,0,0,10,84,
82,12,0,0,0,0,0,0,0,0,0,0,0,0,0,0,0,0,10,84,
82,12,0,0,0,0,0,0,0,0,0,0,0,0,0,0,0,0,10,84,
82,12,0,0,0,0,0,0,0,0,0,0,0,0,0,0,0,0,10,84,
82,12,0,0,0,0,0,0,0,0,0,0,0,0,0,0,0,0,10,84,
0,0,0,0,0,0,0,0,0,0,0,0,0,0,0,0,0,0,0,0
</data>
 </layer>
 <layer id="4" name="Parede quarto" width="20" height="15">
  <data encoding="csv">
0,0,0,0,0,0,0,0,0,0,0,0,0,0,0,0,0,0,0,0,
0,0,0,0,0,10,11,12,0,0,0,0,0,0,0,0,0,0,0,0,
0,0,0,0,0,10,11,12,0,0,0,0,0,0,0,0,0,0,0,0,
0,0,0,0,0,10,11,12,0,0,0,0,0,0,0,0,0,0,0,0,
0,0,0,0,0,10,11,12,0,0,0,0,0,0,0,0,0,0,0,0,
0,0,0,0,0,19,20,21,0,0,0,0,0,0,0,0,0,0,0,0,
0,0,0,0,0,28,29,30,0,0,0,0,0,0,0,0,0,0,0,0,
0,0,0,0,0,37,38,39,0,0,0,0,0,0,0,0,0,0,0,0,
0,0,0,0,0,0,0,0,0,0,0,0,0,0,0,0,0,0,0,0,
0,0,0,0,0,0,0,0,0,0,0,0,0,0,0,0,0,0,0,0,
0,0,0,0,0,0,0,0,0,0,0,0,0,0,0,0,0,0,0,0,
0,0,0,0,0,0,0,0,0,0,0,0,0,0,0,0,0,0,0,0,
0,0,0,0,0,0,0,0,0,0,0,0,0,0,0,0,0,0,0,0,
0,0,0,0,0,0,0,0,0,0,0,0,0,0,0,0,0,0,0,0,
0,0,0,0,0,0,0,0,0,0,0,0,0,0,0,0,0,0,0,0
</data>
 </layer>
 <layer id="6" name="Tapetes" width="20" height="15">
  <data encoding="csv">
0,0,0,0,0,0,0,0,0,0,0,0,0,0,0,0,0,0,0,0,
0,0,0,0,0,0,0,0,0,0,0,0,0,0,0,0,0,0,0,0,
0,0,0,0,0,0,0,0,0,0,0,0,0,0,0,0,0,0,0,0,
0,0,0,0,0,0,0,0,0,0,0,0,0,0,0,0,0,0,0,0,
0,312,301,0,0,0,0,0,0,0,0,0,0,0,0,0,0,0,0,0,
0,312,301,0,0,0,0,0,0,0,0,0,0,0,0,0,0,0,0,0,
0,360,362,0,0,0,0,0,0,305,306,307,308,309,0,0,0,0,0,0,
0,372,374,0,0,0,0,0,0,317,318,319,320,321,0,0,0,0,0,0,
0,0,0,0,0,0,0,0,328,329,330,331,332,333,334,0,0,0,0,0,
0,0,0,0,0,0,0,0,340,341,342,343,344,345,346,0,0,0,0,0,
0,0,0,0,0,0,0,0,0,353,354,355,356,357,0,0,0,0,0,0,
0,0,0,0,0,0,0,0,0,365,366,367,368,369,0,0,0,0,0,0,
0,0,0,0,0,0,0,0,0,0,0,0,0,0,0,324,325,326,0,0,
0,0,0,0,0,0,0,0,0,0,0,0,0,0,0,336,337,338,0,0,
0,0,0,0,0,0,0,0,0,0,0,0,0,0,0,0,0,0,0,0
</data>
 </layer>
 <layer id="7" name="Janelas" width="20" height="15">
  <data encoding="csv">
0,0,0,0,0,0,0,0,0,0,0,0,0,0,0,0,0,0,0,0,
0,0,0,0,0,0,0,0,0,0,0,0,0,0,0,0,0,0,0,0,
0,0,42,43,0,0,0,0,0,0,0,0,0,0,42,43,0,0,0,0,
0,0,51,52,131,132,0,0,0,0,0,0,0,0,51,52,0,0,0,0,
0,0,0,0,143,144,0,0,0,0,0,0,0,0,0,0,0,0,0,0,
0,378,379,0,155,156,0,0,0,0,0,0,0,0,0,0,0,0,0,0,
0,390,391,0,0,0,0,0,0,0,0,0,0,0,0,0,0,0,0,0,
0,0,0,0,0,0,0,0,0,0,0,0,0,0,0,0,0,0,0,0,
0,0,0,0,0,0,0,0,0,0,0,0,0,0,0,0,0,0,0,0,
0,0,0,0,0,0,0,0,0,0,0,0,0,0,0,0,0,0,0,0,
0,0,0,0,0,0,0,0,0,0,0,0,0,0,0,0,0,0,0,0,
0,0,0,0,0,0,0,0,0,0,0,0,0,0,0,0,0,0,0,0,
0,0,0,0,0,0,0,0,0,0,0,0,0,0,0,0,0,0,0,0,
0,0,0,0,0,0,0,0,0,0,0,0,0,0,0,0,0,0,0,0,
0,0,0,0,0,0,0,0,0,0,0,0,0,0,0,0,0,0,0,0
</data>
 </layer>
 <layer id="5" name="Mobilia" width="20" height="15">
  <data encoding="csv">
0,0,0,0,0,0,0,0,0,0,0,0,0,0,0,0,0,0,0,0,
0,0,0,0,0,0,0,0,0,0,0,0,0,0,0,0,0,0,0,0,
0,0,0,0,0,0,0,170,171,0,0,0,0,0,0,160,161,162,163,0,
0,103,104,0,0,0,0,182,183,145,0,0,0,139,140,172,173,174,175,0,
0,115,116,0,0,0,0,194,195,157,0,0,0,151,152,184,185,186,187,0,
0,127,128,0,0,0,0,0,0,0,0,0,0,0,0,196,197,198,199,0,
0,0,0,0,0,0,0,0,0,0,0,0,0,0,0,0,0,213,214,0,
0,0,0,0,0,0,0,0,0,208,209,210,211,212,0,0,0,225,226,0,
0,0,0,0,0,0,0,0,0,220,221,222,223,224,0,0,0,237,238,0,
0,0,0,0,0,0,0,0,0,232,233,234,235,236,0,0,0,0,0,0,
0,0,0,0,0,0,0,0,0,244,245,246,247,248,0,0,0,0,0,0,
0,129,130,131,132,0,0,0,0,0,0,0,0,0,0,0,0,0,0,0,
0,141,142,143,144,0,0,0,0,0,0,0,0,0,0,0,0,0,0,0,
0,153,154,155,156,0,0,0,0,0,0,0,0,0,0,0,0,0,0,0,
0,0,0,0,0,0,0,0,0,0,0,0,0,0,0,0,0,0,0,0
</data>
 </layer>
</map>
